svg/home-bg-chart.svg

<svg width="1557" height="563" viewBox="0 0 1557 563" fill="none" xmlns="http://www.w3.org/2000/svg">
<path d="M108.5 101C104.618 100.137 101.126 98.31 97.3889 97.0001C92.8891 95.4228 88.3967 95.0001 83.6667 95.0001C79.5759 95.0001 75.1982 94.9605 71.3889 96.7223C66.8999 98.7984 64.7914 103.253 62.7778 107.472C59.4574 114.429 58.5 123.195 58.5 130.75C58.5 132.537 59.3409 134 57.2222 134C54.3702 134 52.2651 135.057 50 136.389C48.6094 137.207 46.3735 139.763 48.25 141.222C49.7476 142.387 54.6461 141.5 56.5 141.5C58.4002 141.5 61.7438 141.17 63.5 140.389C64.5019 139.944 65.4044 140 66.5 140C68.1452 140 67.7747 136.883 67.9722 135.5C68.8265 129.52 68.9202 123.442 71 117.722C72.9453 112.373 76.0558 110.413 81.3889 108.889C83.5642 108.267 85.6058 108.423 87.7222 109.028C88.3967 109.221 90.99 110.505 90 111" stroke="#4D4D4D" stroke-width="3" stroke-linecap="round"/>
<path d="M98.5 117C104.42 117 111.941 117.559 116.5 113C120.309 109.191 120.058 102.439 120.472 97.4722C121.005 91.0832 120.5 84.4337 120.5 78.0278C120.5 76.0185 120.5 74.0093 120.5 72C120.5 70.3851 120.717 72.6416 120 73" stroke="#4D4D4D" stroke-width="3" stroke-linecap="round"/>
<path d="M120 71C125.546 70.7227 131.701 67.9983 136.5 65.5C142.587 62.3316 146.825 56.3239 150.222 50.5C151.844 47.7201 152 44.369 152 41.2222C152 40.3148 152 39.4074 152 38.5C152 37.3416 152.092 38.2269 151 38.5" stroke="#4D4D4D" stroke-width="3" stroke-linecap="round"/>
<path d="M112.5 54.4999C109.561 57.8996 106.552 61.1396 105.889 65.7221C105.693 67.0775 104.926 69.5741 106.222 70.611C110.447 73.9908 114.498 65.4333 115.389 62.5554C115.933 60.7975 118.304 47.3889 112.278 50.4443C106.533 53.3573 105.5 61.875 105.5 67.4999" stroke="#4D4D4D" stroke-width="3" stroke-linecap="round"/>
<path d="M126 19.9999C128.534 23.2073 130.919 26.2604 134.375 28.486C136.429 29.8092 138.564 31.1012 140.736 32.2221C143.823 33.8152 146.986 34.5707 150.458 34.736C152.898 34.8522 155.604 34.9575 158 34.4999C161.537 33.8243 164.705 32.2338 167.889 30.611C172.007 28.5125 178.522 22.4963 176.111 17.236C174.978 14.7646 172.377 14.3157 169.861 14.0555C166.89 13.7481 164.772 15.5143 162.75 17.4999C161.016 19.2022 160.142 21.1781 158.75 23.111C157.606 24.6995 156.206 26.2192 154.75 27.5138C152.626 29.4016 149.963 30.996 147.306 31.9999C145.767 32.5811 143.639 32.2499 142 32.2499C141.213 32.2499 140.187 32.0627 139.444 31.8055C138.957 31.6366 138.649 31.2017 138.194 31.0555C137.434 30.8109 136.757 30.8785 136 30.4999" stroke="#4D4D4D" stroke-width="3" stroke-linecap="round"/>
<path d="M136.5 29.25C138.561 25.1872 140.368 21.1266 141.722 16.7638C142.642 13.7997 144.093 12.4387 146.125 10.25C147.899 8.33938 148.594 12.6545 148.694 13.6388C148.833 14.9902 148.75 16.3788 148.75 17.7361C148.75 18.0406 148.579 19.7088 148.806 18.6388C149.399 15.8312 151.88 12.6512 153.972 10.7916C156.131 8.87268 156 13.0474 156 14.25C156 17.0832 155.803 19.9114 155.75 22.75C155.732 23.7403 155.962 26.25 154.75 26.25" stroke="#4D4D4D" stroke-width="3" stroke-linecap="round"/>
<path d="M125.75 20.7501C122.513 17.3228 120.779 11.3575 122.889 6.97234C123.575 5.54714 124.867 2.846 126.667 2.55567C128.624 2.23995 131.812 2.5194 133.208 4.12512C134.364 5.45391 134.344 7.70579 134.625 9.33345C134.845 10.6102 135.221 11.7455 135.5 13.0001C135.763 14.1832 136.967 15.4738 137.625 16.4862C138.497 17.8276 140.464 18.5001 142 18.5001" stroke="#4D4D4D" stroke-width="3" stroke-linecap="round"/>
<path d="M82.5 119.5C82.2797 122.207 82.7211 124.783 82.75 127.472C82.7827 130.513 82.75 133.556 82.75 136.597C82.75 137.384 82.9087 138.349 82.7362 139.125C82.4882 140.241 79.0258 141.415 78.1667 141.889C77.0421 142.51 70.2929 147.223 74.8889 147.486C76.6068 147.584 78.085 147.213 79.75 146.889C81.7295 146.504 83.7805 146.452 85.75 146C87.7529 145.54 89.8225 145 91.875 145C93.1494 145 93.8355 145.149 94.6945 144.194C95.0894 143.756 94.75 141.721 94.75 141.125C94.75 140.138 94.6467 127 93.5 127" stroke="#4D4D4D" stroke-width="3" stroke-linecap="round"/>
<path d="M108.75 77C104.868 78.3331 101.039 78.7651 96.9722 79.0556C95.0175 79.1952 93.0329 79.5572 91.0694 79.4306C88.2055 79.2458 85.5918 78.0576 83.25 76.4583C79.1814 73.6798 76.3579 69.5692 75.0556 64.8333C74.5816 63.1099 74.5 59.5 74.5 59.5" stroke="#4D4D4D" stroke-width="3" stroke-linecap="round"/>
<path d="M108.5 77.25C108.443 79.46 107.79 81.5667 107.5 83.75C107.068 87.002 107.083 90.4938 107.375 93.7639C107.524 95.4357 107.42 97.0879 107.75 98.7361C107.845 99.2107 107.853 100.301 108.25 100.5" stroke="#4D4D4D" stroke-width="3" stroke-linecap="round"/>
<path d="M1561 420.685C1535.58 438.265 1509.18 453.311 1482.33 468.574C1468.14 476.642 1454.53 485.64 1439.78 492.685C1429.35 497.661 1418.77 502.403 1408.5 507.685C1400.24 511.931 1390.8 514.468 1383.06 519.63C1375.81 524.462 1369.61 529.953 1363.06 535.685C1359.04 539.2 1358.19 542.358 1352.78 538.685C1341.5 531.03 1329.19 524.782 1317 518.685C1293.12 506.746 1267.52 499.846 1244.33 486.241C1225.94 475.448 1207.05 465.252 1189 453.907C1182.46 449.799 1176.39 445.053 1170.44 440.185C1164.44 435.276 1165.09 437.117 1160.83 441.796C1146.83 457.195 1128.64 468.395 1113.56 482.685C1098.45 497 1083.27 511.574 1069 526.741C1061.18 535.054 1053.79 544.622 1045 551.907C1042.97 553.592 1037.25 562.004 1034 560.463C1028.42 557.82 1023.42 553.881 1017.83 551.185C1004.2 544.61 989.352 540.374 975.444 534.352C937.369 517.866 900.253 496.408 865.444 473.907C800.101 431.669 741.128 379.734 674.055 340.074C642.253 321.269 614.42 296.835 584.555 275.241C567.912 263.206 550.296 251.462 534.555 238.241C531.198 235.421 525.944 231.327 523 235.907C513.73 250.328 501.335 261.258 489.333 273.352C470.937 291.889 454.966 312.041 438.778 332.463C433.735 338.824 428.663 345.157 423.611 351.519C422.277 353.199 419.467 358.548 417 358.685C411.425 358.995 406.295 353.316 402.333 350.074C387.219 337.708 370.201 328.22 354.5 316.685C312.153 285.573 118.369 142.601 74.9999 113M62.9999 104C59.0332 101.064 38.6862 83.8694 34.5555 81.2408C32.8156 80.1336 32.7874 79.8665 33.9999 81.6852" stroke="#4D4D4D" stroke-width="3" stroke-linecap="round"/>
<path d="M1564 407.685C1550.52 414.799 1538.6 425.106 1525.33 432.796C1508.77 442.401 1492.61 452.584 1476.22 462.463C1462.5 470.739 1447.81 477.073 1434 485.13C1424.09 490.911 1413.99 496.385 1403.56 501.13C1396.54 504.319 1389.26 506.623 1382 509.13C1374.7 511.653 1368.45 516.837 1361.5 520.185C1357.3 522.207 1353.17 524.379 1349 526.463C1343.71 529.11 1344.51 524.497 1341.56 520.908C1334.07 511.807 1319.28 506.167 1308.94 501.185C1291.42 492.738 1276.4 480.445 1259 471.685C1241.92 463.085 1226.47 452.044 1209.83 442.685C1196.75 435.326 1182.18 430.357 1168.5 424.185C1165.72 422.931 1153.29 415.838 1150 419.13C1147.81 421.324 1146.53 424.819 1144.44 427.241C1138.53 434.104 1131.64 439.782 1125 445.908C1108.65 460.976 1093.45 477.256 1077 492.185C1063.23 504.684 1048.86 517.081 1036.11 530.63C1034.27 532.581 1026.54 546.128 1023 544.463C1021.79 543.894 1022.26 542.645 1021.78 541.685C1020.79 539.707 1018.29 538.943 1016.44 538.13C990.983 526.927 965.359 514.901 942 499.685C934.982 495.114 927.566 491.48 920.889 486.352C913.84 480.938 907.236 474.988 900.056 469.741C886.525 459.854 873.348 449.544 859.889 439.574C833.782 420.236 810.013 397.907 783.778 378.685C754.576 357.29 729.491 330.478 699.778 309.908C672.795 291.227 647.292 271.236 618.5 255.241C608.007 249.411 596.676 245.76 586.778 238.908C578.044 232.861 567.915 228.421 558.444 223.685C556.3 222.613 532.455 208.375 531 212.741C528.623 219.872 521.423 226.199 516.333 231.352C507.245 240.554 498.831 250.833 490.5 260.741C474.472 279.802 459.546 299.747 444.444 319.463C438.477 327.254 431.835 333.85 425 340.685C423.65 342.036 420.986 347.56 418.556 345.13C415.469 342.043 413.359 337.727 410 334.741C397.825 323.918 383.974 313.883 369.944 305.63C361.792 300.834 355.466 293.664 347.222 288.908C337.595 283.353 329.293 275.327 320.222 268.908C311.31 262.601 301.383 257.15 291.944 251.685C280.1 244.828 269.647 236.014 258.5 228.13C247.277 220.192 237.487 210.509 225.556 203.463C212.636 195.834 199.291 188.408 187.222 179.463C165.4 163.289 110.429 126.802 89 110M68.5 97C63.7862 92.679 55.6034 86.7272 50 83.6854C48.2086 82.7129 42.1144 77.8604 42 75.6854C41.8052 71.9858 47.6371 67.6427 49.4444 64.6854C51.9465 60.591 54.1636 57.8604 48 58.7409C41.2821 59.7006 34.63 59.7959 27.7777 59.6854C24.3925 59.6308 21.5175 58.3938 18.2222 57.9076C14.8085 57.4039 11.387 57.9551 7.99996 57.1854C6.40932 56.8239 0.207811 54.5509 1.99996 57.4631C5.73489 63.5324 9.01463 70.3186 11.7777 76.9076C13.4542 80.9052 16.9308 102.09 23.5 100.63C25.9076 100.095 33.5595 77.8044 35 80.6854" stroke="#4D4D4D" stroke-width="3" stroke-linecap="round"/>
</svg>

<svg xmlns="http://www.w3.org/2000/svg" width="1557" height="563" fill="none"><path stroke="#4D4D4D" stroke-linecap="round" stroke-width="3" d="M108.5 101c-3.882-.863-7.374-2.69-11.111-4-4.5-1.577-8.992-2-13.722-2-4.091 0-8.469-.04-12.278 1.722-4.49 2.076-6.598 6.531-8.611 10.75-3.32 6.957-4.278 15.723-4.278 23.278 0 1.787.84 3.25-1.278 3.25-2.852 0-4.957 1.057-7.222 2.389-1.39.818-3.627 3.374-1.75 4.833 1.498 1.165 6.396.278 8.25.278 1.9 0 5.244-.33 7-1.111 1.002-.445 1.904-.389 3-.389 1.645 0 1.275-3.117 1.472-4.5.855-5.98.948-12.058 3.028-17.778 1.945-5.349 5.056-7.309 10.389-8.833 2.175-.622 4.217-.466 6.333.139.675.193 3.268 1.477 2.278 1.972"/><path stroke="#4D4D4D" stroke-linecap="round" stroke-width="3" d="M98.5 117c5.92 0 13.441.559 18-4 3.809-3.809 3.558-10.561 3.972-15.528.533-6.389.028-13.038.028-19.444V72c0-1.615.217.642-.5 1m0-2c5.546-.277 11.701-3.002 16.5-5.5 6.087-3.168 10.325-9.176 13.722-15 1.622-2.78 1.778-6.131 1.778-9.278V38.5c0-1.158.092-.273-1 0m-38.5 16c-2.939 3.4-5.948 6.64-6.611 11.222-.196 1.356-.963 3.852.333 4.889 4.225 3.38 8.276-5.178 9.167-8.056.544-1.758 2.915-15.166-3.111-12.11-5.745 2.912-6.778 11.43-6.778 17.055M126 20c2.534 3.207 4.919 6.26 8.375 8.486 2.054 1.323 4.189 2.615 6.361 3.736 3.087 1.593 6.25 2.349 9.722 2.514 2.44.116 5.146.222 7.542-.236 3.537-.676 6.705-2.266 9.889-3.889 4.118-2.099 10.633-8.115 8.222-13.375-1.133-2.471-3.734-2.92-6.25-3.18-2.971-.308-5.089 1.458-7.111 3.444-1.734 1.702-2.608 3.678-4 5.611a27.603 27.603 0 0 1-4 4.403c-2.124 1.888-4.787 3.482-7.444 4.486-1.539.581-3.667.25-5.306.25-.787 0-1.813-.187-2.556-.445-.487-.168-.795-.603-1.25-.75-.76-.244-1.437-.177-2.194-.555"/><path stroke="#4D4D4D" stroke-linecap="round" stroke-width="3" d="M136.5 29.25c2.061-4.063 3.868-8.123 5.222-12.486.92-2.964 2.371-4.325 4.403-6.514 1.774-1.91 2.469 2.405 2.569 3.389.139 1.351.056 2.74.056 4.097 0 .305-.171 1.973.056.903.593-2.808 3.074-5.988 5.166-7.847 2.159-1.92 2.028 2.255 2.028 3.458 0 2.833-.197 5.661-.25 8.5-.018.99.212 3.5-1 3.5"/><path stroke="#4D4D4D" stroke-linecap="round" stroke-width="3" d="M125.75 20.75c-3.237-3.427-4.971-9.393-2.861-13.778.686-1.425 1.978-4.126 3.778-4.416 1.957-.316 5.145-.037 6.541 1.57 1.156 1.328 1.136 3.58 1.417 5.207.22 1.277.596 2.412.875 3.667.263 1.183 1.467 2.474 2.125 3.486.872 1.342 2.839 2.014 4.375 2.014m-59.5 101c-.22 2.707.221 5.283.25 7.972.033 3.041 0 6.084 0 9.125 0 .787.159 1.752-.014 2.528-.248 1.116-3.71 2.29-4.57 2.764-1.124.621-7.873 5.334-3.277 5.597 1.718.098 3.196-.273 4.861-.597 1.98-.385 4.03-.437 6-.889 2.003-.46 4.073-1 6.125-1 1.274 0 1.96.149 2.82-.806.394-.438.055-2.473.055-3.069 0-.987-.103-14.125-1.25-14.125m15.25-50c-3.882 1.333-7.711 1.765-11.778 2.056-1.954.14-3.94.501-5.903.375-2.864-.185-5.477-1.373-7.819-2.973-4.069-2.778-6.892-6.889-8.194-11.625-.474-1.723-.556-5.333-.556-5.333m34 17.75c-.057 2.21-.71 4.317-1 6.5-.432 3.252-.417 6.744-.125 10.014.149 1.672.045 3.324.375 4.972.095.475.103 1.565.5 1.764M1561 420.685c-25.42 17.58-51.82 32.626-78.67 47.889-14.19 8.068-27.8 17.066-42.55 24.111-10.43 4.976-21.01 9.718-31.28 15-8.26 4.246-17.7 6.783-25.44 11.945-7.25 4.832-13.45 10.323-20 16.055-4.02 3.515-4.87 6.673-10.28 3-11.28-7.655-23.59-13.903-35.78-20-23.88-11.939-49.48-18.839-72.67-32.444-18.39-10.793-37.28-20.989-55.33-32.334-6.54-4.108-12.61-8.854-18.56-13.722-6-4.909-5.35-3.068-9.61 1.611-14 15.399-32.19 26.599-47.27 40.889-15.11 14.315-30.29 28.889-44.56 44.056-7.82 8.313-15.21 17.881-24 25.166-2.03 1.685-7.75 10.097-11 8.556-5.58-2.643-10.58-6.582-16.17-9.278-13.63-6.575-28.478-10.811-42.386-16.833-38.075-16.486-75.191-37.944-110-60.445-65.343-42.238-124.316-94.173-191.389-133.833-31.802-18.805-59.635-43.239-89.5-64.833-16.643-12.035-34.259-23.779-50-37-3.357-2.82-8.611-6.914-11.555-2.334-9.27 14.421-21.665 25.351-33.667 37.445-18.396 18.537-34.367 38.689-50.555 59.111-5.043 6.361-10.115 12.694-15.167 19.056-1.334 1.68-4.144 7.029-6.611 7.166-5.575.31-10.705-5.369-14.667-8.611-15.114-12.366-32.132-21.854-47.833-33.389C312.153 285.573 118.369 142.601 75 113m-12-9c-3.967-2.936-24.314-20.13-28.444-22.76-1.74-1.106-1.769-1.373-.556.445"/><path stroke="#4D4D4D" stroke-linecap="round" stroke-width="3" d="M1564 407.685c-13.48 7.114-25.4 17.421-38.67 25.111-16.56 9.605-32.72 19.788-49.11 29.667-13.72 8.276-28.41 14.61-42.22 22.667-9.91 5.781-20.01 11.255-30.44 16-7.02 3.189-14.3 5.493-21.56 8-7.3 2.523-13.55 7.707-20.5 11.055-4.2 2.022-8.33 4.194-12.5 6.278-5.29 2.647-4.49-1.966-7.44-5.555-7.49-9.101-22.28-14.741-32.62-19.723-17.52-8.447-32.54-20.74-49.94-29.5-17.08-8.6-32.53-19.641-49.17-29-13.08-7.359-27.65-12.328-41.33-18.5-2.78-1.254-15.21-8.347-18.5-5.055-2.19 2.194-3.47 5.689-5.56 8.111-5.91 6.863-12.8 12.541-19.44 18.667-16.35 15.068-31.55 31.348-48 46.277-13.77 12.499-28.14 24.896-40.89 38.445-1.84 1.951-9.57 15.498-13.11 13.833-1.21-.569-.74-1.818-1.22-2.778-.99-1.978-3.49-2.742-5.34-3.555-25.457-11.203-51.081-23.229-74.44-38.445-7.018-4.571-14.434-8.205-21.111-13.333-7.049-5.414-13.653-11.364-20.833-16.611-13.531-9.887-26.708-20.197-40.167-30.167-26.107-19.338-49.876-41.667-76.111-60.889-29.202-21.395-54.287-48.207-84-68.777-26.983-18.681-52.486-38.672-81.278-54.667-10.493-5.83-21.824-9.481-31.722-16.333-8.734-6.047-18.863-10.487-28.334-15.223-2.144-1.072-25.989-15.31-27.444-10.944-2.377 7.131-9.577 13.458-14.667 18.611-9.088 9.202-17.502 19.481-25.833 29.389-16.028 19.061-30.954 39.006-46.056 58.722-5.967 7.791-12.609 14.387-19.444 21.222-1.35 1.351-4.014 6.875-6.444 4.445-3.087-3.087-5.197-7.403-8.556-10.389-12.175-10.823-26.026-20.858-40.056-29.111-8.152-4.796-14.478-11.966-22.722-16.722-9.627-5.555-17.929-13.581-27-20-8.912-6.307-18.839-11.758-28.278-17.223-11.844-6.857-22.297-15.671-33.444-23.555-11.223-7.938-21.013-17.621-32.944-24.667-12.92-7.629-26.265-15.055-38.334-24C165.4 163.289 110.429 126.802 89 110M68.5 97C63.786 92.679 55.603 86.727 50 83.685c-1.791-.972-7.886-5.825-8-8-.195-3.7 5.637-8.042 7.444-11 2.502-4.094 4.72-6.825-1.444-5.944-6.718.96-13.37 1.055-20.222.944-3.386-.054-6.26-1.291-9.556-1.777-3.414-.504-6.835.047-10.222-.723-1.59-.361-7.792-2.634-6 .278 3.735 6.07 7.015 12.856 9.778 19.445 1.676 3.997 5.153 25.182 11.722 23.722 2.408-.535 10.06-22.826 11.5-19.945"/></svg>
